FINK
CUT[ALS WIR JUENGST IN REGENSBURG WAREN]
REG[Europa, Mitteleuropa, Deutschland, Bayern]
KEY[F0221B 08  D 2/4]
MEL[  -5_.-4  -3-51-3  -5_-4-2  -3_-10
    -5_.-4  -3-51-3  -5_-4-2  -3_-10
    -1_-3-5  -1_-3-5  -7__  -5_0_
    -7_-7_  1_-3_  -5__  -3_0_
    -1_-3-5  -1_-3-5  -6-41-6  -5_0_
    -7_-7_  1_-3_  -5_32  1_0_ //] >>
FCT[Scherz - Lied, Liebe; Schiffer - Lied]
